X:1
T:Title
%%score ( 1 2 ) 3
L:1/8
M:3/2
K:Ab
V:1 bass nm="Grand Piano, Soprano"
V:2 bass 
V:3 bass nm="Choir Pad, My Soul Shall Be Satisfied"
V:1
 z4 z4 [F,A,C]2 [E,A,C]2 | z4 z4 [F,A,C]2 [E,A,C]2 | z4 z4 [=E,G,C]2 [E,G,C]2 | %3
 z4 z4 [E,G,B,D]2 [E,G,B,D]2 | z4 z4 [A,C]2 [A,C]2 | z4 z4 [=E,G,C]2 [E,G,C]2 | %6
 z4 z4 [E,G,B,D]2 [E,G,B,D]2 | z4 z4 [F,A,C]2 [E,A,C]2 |[M:4/4][Q:1/4=88] E,F, .E,2 CCCC | %9
 z2 z B,- B,4 | z2 z[K:treble] C- C4 | A,G, .F,2 E=DD_D | E,F, .E,2 C[K:treble]CCC | %13
 A,B, .A,2 EE[E_G][DF] | D[K:bass]F, .D2 EE[K:treble]E[B,=D] | %15
 [B,=D][Q:1/4=72][CE]/[Q:1/4=64][B,_D]/-[Q:1/4=55] [B,D][A,C]- [A,C]2- [A,C]/ z/ z[Q:1/4=84][Q:1/4=80][Q:1/4=76][Q:1/4=68][Q:1/4=60] |] %16
V:2
 x12 | x12 | x12 | x12 | x12 | x12 | x12 | x12 |[M:4/4] z2 z A,- A,4 | E,F, .E,2 DEDD | %10
 E,F, .E,2[K:treble] EFEE | z2 z B,- B,4 | z2 z A,- A,4[K:treble] | z2 z C- C2 z2 | %14
 z2[K:bass] z C- C3[K:treble] z | x8 |] %16
V:3
 A,,2 F,2 E,2 C,6 | A,,2 F,2 E,2 A,,6 | C,2 A,,2 G,,2 C,6 | G,,2 C,2 F,,2 B,,6 | A,,2 C,2 E,2 F,6 | %5
w: By~Emmet~Sidney~Dean * * *|||||
 C,2 A,,2 B,,2 C,6 | G,,2 C,2 F,,2 B,,6 | C,2 B,,2 E,,2 A,,6 | %8
w: |||
[M:4/4] z4 [A,,E,][A,,F,][A,,E,][A,,E,] | z4 [E,G,][E,G,][E,G,][E,G,] | %10
w: ||
 z4 [A,,A,][A,,A,][A,,A,][A,,A,] | z4 [E,G,][B,,F,][B,,A,][E,G,] | %12
w: ||
 z4 [A,,E,][A,,F,][A,,E,][A,,E,] | z4 [A,,A,][A,,A,][C,A,][D,A,] | z4 [E,A,][C,A,][A,,A,][B,,F,] | %15
w: |||
 [F,A,][E,A,]/[E,G,]/- [E,G,][A,,E,]- [A,,E,]2- [A,,E,]/ z/ z |] %16
w: |

